exports/precipitation-anomaly_v1_850x600.svg

<svg xmlns="http://www.w3.org/2000/svg" version="1.1" style="background-color:#fff;-webkit-font-smoothing:antialiased" width="850" height="600" font-family="'Helvetica Neue',Helvetica,Arial,sans-serif" font-size="18" text-rendering="optimizeLegibility"><g class="ChartTab"><g class="HeaderView"><g opacity=".8" transform="matrix(.27 0 0 .27 778 15)"><a xmlns:xlink="http://www.w3.org/1999/xlink" xlink:href="https://ourworldindata.org" target="_blank"><g><path fill="#1B2543" d="M0 0h211.2v130.1H0z"/><path fill="#E63912" d="M0 112.2h211.2v17.9H0z"/><g><path fill="none" d="M1.2 12.3h210.2v99.2H1.2z"/><path fill="#FFF" d="M37.8 32.2c0 12.7-7.7 19.4-17.1 19.4-9.7 0-16.6-7.5-16.6-18.7 0-11.7 7.3-19.3 17.1-19.3 10.1.1 16.6 7.7 16.6 18.6zm-28.6.6c0 7.9 4.3 14.9 11.8 14.9 7.5 0 11.8-6.9 11.8-15.3 0-7.3-3.8-14.9-11.8-14.9-7.9 0-11.8 7.3-11.8 15.3zM62.7 43.8c0 2.7.1 5.1.2 7.2h-4.3l-.3-4.3h-.1c-1.3 2.1-4 4.9-8.8 4.9-4.2 0-9.1-2.3-9.1-11.6V24.6h4.8v14.6c0 5 1.5 8.4 5.9 8.4 3.2 0 5.5-2.2 6.3-4.4.3-.7.4-1.6.4-2.5V24.6h4.8v19.2zM67.3 32.8c0-3.1-.1-5.8-.2-8.2h4.2l.2 5.2h.2c1.2-3.5 4.1-5.8 7.3-5.8.5 0 .9.1 1.4.2v4.5c-.5-.1-1-.2-1.6-.2-3.4 0-5.8 2.6-6.5 6.2-.1.7-.2 1.4-.2 2.2V51h-4.8V32.8zM95.4 51L86 14.2h5l4.4 18.6c1.1 4.6 2.1 9.2 2.7 12.7h.1c.6-3.7 1.8-8 3-12.8l4.9-18.5h5l4.5 18.7c1 4.4 2 8.7 2.6 12.6h.1c.8-4 1.8-8.1 3-12.7l4.9-18.5h4.9L120.6 51h-5L111 31.9c-1.1-4.7-1.9-8.3-2.4-12h-.1c-.7 3.7-1.5 7.3-2.8 12L100.4 51h-5zM154.9 37.6c0 9.8-6.8 14-13.2 14-7.2 0-12.7-5.2-12.7-13.6 0-8.8 5.8-14 13.1-14 7.7 0 12.8 5.5 12.8 13.6zm-21 .3c0 5.8 3.3 10.1 8 10.1 4.6 0 8-4.3 8-10.3 0-4.5-2.2-10.1-7.9-10.1s-8.1 5.2-8.1 10.3zM158.2 32.8c0-3.1-.1-5.8-.2-8.2h4.2l.2 5.2h.2c1.2-3.5 4.1-5.8 7.3-5.8.5 0 .9.1 1.4.2v4.5c-.5-.1-1-.2-1.6-.2-3.4 0-5.8 2.6-6.5 6.2-.1.7-.2 1.4-.2 2.2V51h-4.8V32.8zM173.5 12.3h4.8V51h-4.8V12.3zM206.5 12.3v31.9c0 2.3.1 5 .2 6.8h-4.3l-.2-4.6h-.2c-1.5 2.9-4.7 5.2-9 5.2-6.4 0-11.3-5.4-11.3-13.4-.1-8.8 5.4-14.2 11.9-14.2 4 0 6.8 1.9 8 4h.1V12.3h4.8zm-4.8 23.1c0-.6-.1-1.4-.2-2a7 7 0 00-6.9-5.6c-5 0-7.9 4.4-7.9 10.2 0 5.3 2.6 9.8 7.8 9.8 3.2 0 6.2-2.1 7.1-5.7.2-.7.2-1.3.2-2.1v-4.6zM42.8 64c.1 1.6-1.1 2.9-3.1 2.9-1.7 0-2.9-1.3-2.9-2.9 0-1.7 1.3-3 3-3 1.9 0 3 1.3 3 3zm-5.4 33.8V71.4h4.8v26.4h-4.8zM47.5 78.6c0-2.7-.1-5-.2-7.1h4.3l.3 4.4h.1c1.3-2.5 4.4-5 8.8-5 3.7 0 9.4 2.2 9.4 11.2v15.8h-4.8V82.6c0-4.3-1.6-7.8-6.1-7.8-3.2 0-5.6 2.2-6.5 4.9-.2.6-.3 1.4-.3 2.2v15.9h-4.8V78.6zM84 61.6c2.9-.4 6.3-.8 10.1-.8 6.8 0 11.7 1.6 14.9 4.6 3.3 3 5.2 7.3 5.2 13.2 0 6-1.9 10.9-5.3 14.3-3.4 3.4-9.1 5.3-16.3 5.3-3.4 0-6.2-.2-8.6-.4V61.6zm4.8 32.5c1.2.2 3 .3 4.8.3 10.2 0 15.7-5.7 15.7-15.6.1-8.7-4.9-14.2-14.9-14.2-2.5 0-4.3.2-5.6.5v29zM132.1 97.8l-.4-3.3h-.2a9.79 9.79 0 01-8.1 3.9c-5.4 0-8.1-3.8-8.1-7.6 0-6.4 5.7-9.9 15.9-9.8v-.5c0-2.2-.6-6.1-6-6.1-2.5 0-5 .8-6.9 2l-1.1-3.2c2.2-1.4 5.4-2.3 8.7-2.3 8.1 0 10.1 5.5 10.1 10.8v9.9c0 2.3.1 4.5.4 6.3h-4.3zm-.7-13.4c-5.3-.1-11.2.8-11.2 5.9 0 3.1 2.1 4.6 4.5 4.6 3.4 0 5.6-2.2 6.4-4.4.2-.5.3-1 .3-1.5v-4.6zM146.6 63.9v7.6h6.9v3.7h-6.9v14.2c0 3.3.9 5.1 3.6 5.1 1.3 0 2.2-.2 2.8-.3l.2 3.6c-.9.4-2.4.7-4.3.7-2.2 0-4-.7-5.2-2-1.4-1.4-1.9-3.8-1.9-6.9V75.1h-4.1v-3.7h4.1v-6.3l4.8-1.2zM171.4 97.8l-.4-3.3h-.2a9.79 9.79 0 01-8.1 3.9c-5.4 0-8.1-3.8-8.1-7.6 0-6.4 5.7-9.9 15.9-9.8v-.5c0-2.2-.6-6.1-6-6.1-2.5 0-5 .8-6.9 2l-1.1-3.2c2.2-1.4 5.4-2.3 8.7-2.3 8.1 0 10.1 5.5 10.1 10.8v9.9c0 2.3.1 4.5.4 6.3h-4.3zm-.7-13.4c-5.3-.1-11.2.8-11.2 5.9 0 3.1 2.1 4.6 4.5 4.6 3.4 0 5.6-2.2 6.4-4.4.2-.5.3-1 .3-1.5v-4.6z"/></g></g></a></g><a href="https://ourworldindata.org/grapher/precipitation-anomaly" target="_blank"><text font-size="25.2" x="15" y="35.2" fill="#555"><tspan x="15" y="35.16">Precipitation anomaly</tspan></text></a><text font-size="14.4" x="15" y="53.7" fill="#666"><tspan x="15" y="53.72">Annual anomalies, or differences, compared with the average precipitation from 1901 to 2000 based on rainfall and</tspan><tspan x="15" y="69.56">snowfall measurements from land-based weather stations. At each weather station, annual precipitation anomalies</tspan><tspan x="15" y="85.4">were calculated from total annual precipitation in inches. Anomalies across all US states were then aggregated based</tspan><tspan x="15" y="101.24">on weighted averages (by area) to define a national result.</tspan></text></g><g class="LineChart"><defs><clipPath id="a"><path d="M75.93 0h830v866.8h-830z"/></clipPath></defs><g class="AxisBoxView"><g class="HorizontalAxis" fill="#666" text-anchor="middle" font-size="16.2"><text x="85.9" y="556.5">1901</text><text x="191.4" y="556.5">1920</text><text x="302.4" y="556.5">1940</text><text x="413.4" y="556.5">1960</text><text x="524.4" y="556.5">1980</text><text x="635.4" y="556.5">2000</text><text x="718.6" y="556.5">2015</text></g><g class="VerticalAxis" fill="#666" dominant-baseline="middle" text-anchor="end" font-size="16.2"><text x="80.93" y="493.1">-4 inches</text><text x="80.93" y="411">-2 inches</text><text x="80.93" y="329">0 inches</text><text x="80.93" y="247">2 inches</text><text x="80.93" y="164.9">4 inches</text></g><g class="AxisGridLines"><path stroke="#ddd" stroke-dasharray="3,2" d="M85.93 493.1H718.6M85.93 411H718.6"/><path stroke="#ccc" d="M85.93 329H718.6"/><path stroke="#ddd" stroke-dasharray="3,2" d="M85.93 247H718.6M85.93 164.9H718.6"/></g></g><g clip-path="url(#a)"><g class="HeightedLegend clickable"><g class="legendMark"><text font-size="13.5" x="723.6" y="143.2" fill="#3360a9"><tspan x="723.6" y="143.15">United States</tspan></text></g></g><g class="Lines"><g class="key-United-States_0"><path stroke="#3360a9" stroke-linecap="round" d="M86 424l6-123 5 52 6 58 5-191 6-10 5 78 6 47 5-57 6 257 5-189 6-39 6 26 5 42 6-162 5 137 6 167 5-140 6-123 5 19 6 104 6-46 5-73 6 211 5-18 6-163 5-46 6 105 5-27 6 188 5-80 6-119 6 120 5 70 6-151 5 90 6-132 5 31 6 140 5-167 6-99 6 61 5 185 6-156 5-99 6 80 5 71 6-55 5 16 6-23 5-16 6 202 6-81 5 88 6-65 5 97 6-348 5 149 6-15 5 76 6-103 6 109 5 119 6-187 5 19 6 96 5-88 6-32 5-10 6 38 5-26 6-56 6-134 5 178 6-99 5 276 6-169 5 12 6-107 5 184 6-70 6-160 5-37 6 138 5 59 6-58 5 97 6 128 5-129 6-128 5-11 6 48 6-56 5 82 6-85 5-41 6 75 5-83 6 222 5 11 6-33 5-1 6-60 6-113 5 130 6 11 5 26 6-84 5-44 6 38 5 52 6 106 6-145 5 9 6-153" fill="none" stroke-width="1.5"/><g fill="#3360a9"><circle cx="86" cy="424" r="2"/><circle cx="92" cy="301" r="2"/><circle cx="97" cy="353" r="2"/><circle cx="103" cy="411" r="2"/><circle cx="108" cy="220" r="2"/><circle cx="114" cy="210" r="2"/><circle cx="119" cy="288" r="2"/><circle cx="125" cy="335" r="2"/><circle cx="130" cy="278" r="2"/><circle cx="136" cy="535" r="2"/><circle cx="141" cy="346" r="2"/><circle cx="147" cy="307" r="2"/><circle cx="153" cy="333" r="2"/><circle cx="158" cy="375" r="2"/><circle cx="164" cy="213" r="2"/><circle cx="169" cy="350" r="2"/><circle cx="175" cy="517" r="2"/><circle cx="180" cy="377" r="2"/><circle cx="186" cy="254" r="2"/><circle cx="191" cy="273" r="2"/><circle cx="197" cy="377" r="2"/><circle cx="203" cy="331" r="2"/><circle cx="208" cy="258" r="2"/><circle cx="214" cy="469" r="2"/><circle cx="219" cy="451" r="2"/><circle cx="225" cy="288" r="2"/><circle cx="230" cy="242" r="2"/><circle cx="236" cy="347" r="2"/><circle cx="241" cy="320" r="2"/><circle cx="247" cy="508" r="2"/><circle cx="252" cy="428" r="2"/><circle cx="258" cy="309" r="2"/><circle cx="264" cy="429" r="2"/><circle cx="269" cy="499" r="2"/><circle cx="275" cy="348" r="2"/><circle cx="280" cy="438" r="2"/><circle cx="286" cy="306" r="2"/><circle cx="291" cy="337" r="2"/><circle cx="297" cy="477" r="2"/><circle cx="302" cy="310" r="2"/><circle cx="308" cy="211" r="2"/><circle cx="314" cy="272" r="2"/><circle cx="319" cy="457" r="2"/><circle cx="325" cy="301" r="2"/><circle cx="330" cy="202" r="2"/><circle cx="336" cy="282" r="2"/><circle cx="341" cy="353" r="2"/><circle cx="347" cy="298" r="2"/><circle cx="352" cy="314" r="2"/><circle cx="358" cy="291" r="2"/><circle cx="363" cy="275" r="2"/><circle cx="369" cy="477" r="2"/><circle cx="375" cy="396" r="2"/><circle cx="380" cy="484" r="2"/><circle cx="386" cy="419" r="2"/><circle cx="391" cy="516" r="2"/><circle cx="397" cy="168" r="2"/><circle cx="402" cy="317" r="2"/><circle cx="408" cy="302" r="2"/><circle cx="413" cy="378" r="2"/><circle cx="419" cy="275" r="2"/><circle cx="425" cy="384" r="2"/><circle cx="430" cy="503" r="2"/><circle cx="436" cy="316" r="2"/><circle cx="441" cy="335" r="2"/><circle cx="447" cy="431" r="2"/><circle cx="452" cy="343" r="2"/><circle cx="458" cy="311" r="2"/><circle cx="463" cy="301" r="2"/><circle cx="469" cy="339" r="2"/><circle cx="474" cy="313" r="2"/><circle cx="480" cy="257" r="2"/><circle cx="486" cy="123" r="2"/><circle cx="491" cy="301" r="2"/><circle cx="497" cy="202" r="2"/><circle cx="502" cy="478" r="2"/><circle cx="508" cy="309" r="2"/><circle cx="513" cy="321" r="2"/><circle cx="519" cy="214" r="2"/><circle cx="524" cy="398" r="2"/><circle cx="530" cy="328" r="2"/><circle cx="536" cy="168" r="2"/><circle cx="541" cy="131" r="2"/><circle cx="547" cy="269" r="2"/><circle cx="552" cy="328" r="2"/><circle cx="558" cy="270" r="2"/><circle cx="563" cy="367" r="2"/><circle cx="569" cy="495" r="2"/><circle cx="574" cy="366" r="2"/><circle cx="580" cy="238" r="2"/><circle cx="585" cy="227" r="2"/><circle cx="591" cy="275" r="2"/><circle cx="597" cy="219" r="2"/><circle cx="602" cy="301" r="2"/><circle cx="608" cy="216" r="2"/><circle cx="613" cy="175" r="2"/><circle cx="619" cy="250" r="2"/><circle cx="624" cy="167" r="2"/><circle cx="630" cy="389" r="2"/><circle cx="635" cy="400" r="2"/><circle cx="641" cy="367" r="2"/><circle cx="646" cy="366" r="2"/><circle cx="652" cy="306" r="2"/><circle cx="658" cy="193" r="2"/><circle cx="663" cy="323" r="2"/><circle cx="669" cy="334" r="2"/><circle cx="674" cy="360" r="2"/><circle cx="680" cy="276" r="2"/><circle cx="685" cy="232" r="2"/><circle cx="691" cy="270" r="2"/><circle cx="696" cy="322" r="2"/><circle cx="702" cy="428" r="2"/><circle cx="708" cy="283" r="2"/><circle cx="713" cy="292" r="2"/><circle cx="719" cy="139" r="2"/></g></g></g></g></g><g class="SourcesFooter" fill="#777"><g class="clickable" fill="#777"><text font-size="12.6" x="15" y="581.6"><tspan x="15" y="581.58">Source: National Oceanic &amp; Atmospheric Administration (NOAA) via the US EPA</tspan></text></g><text font-size="12.6" x="775.4" y="581.6"><tspan x="775.4" y="581.58"><a class="cclogo" href="http://creativecommons.org/licenses/by-sa/4.0/deed.en_US" target="_blank" fill="#777">CC BY-SA</a></tspan></text></g></g></svg>

<svg xmlns="http://www.w3.org/2000/svg" version="1.1" style="font-family: 'Helvetica Neue', Helvetica, Arial, sans-serif; font-size: 18px; background-color: white; text-rendering: optimizeLegibility; -webkit-font-smoothing: antialiased;" width="850" height="600"><g class="ChartTab"><g class="HeaderView"><g opacity="0.8" transform="translate(778, 15) scale(0.27)"><a xmlns:xlink="http://www.w3.org/1999/xlink" xlink:href="https://ourworldindata.org" target="_blank"><g><rect x="0" y="0" fill="#1B2543" width="211.2" height="130.1"/><rect x="0" y="112.2" fill="#E63912" width="211.2" height="17.9"/><g><rect x="1.2" y="12.3" fill="none" width="210.2" height="99.2"/><path fill="#FFFFFF" d="M37.8,32.2c0,12.7-7.7,19.4-17.1,19.4c-9.7,0-16.6-7.5-16.6-18.7c0-11.7,7.3-19.3,17.1-19.3 C31.3,13.7,37.8,21.3,37.8,32.2z M9.2,32.8c0,7.9,4.3,14.9,11.8,14.9c7.5,0,11.8-6.9,11.8-15.3c0-7.3-3.8-14.9-11.8-14.9 C13.1,17.5,9.2,24.8,9.2,32.8z"/><path fill="#FFFFFF" d="M62.7,43.8c0,2.7,0.1,5.1,0.2,7.2h-4.3l-0.3-4.3h-0.1c-1.3,2.1-4,4.9-8.8,4.9c-4.2,0-9.1-2.3-9.1-11.6 V24.6h4.8v14.6c0,5,1.5,8.4,5.9,8.4c3.2,0,5.5-2.2,6.3-4.4c0.3-0.7,0.4-1.6,0.4-2.5V24.6h4.8V43.8z"/><path fill="#FFFFFF" d="M67.3,32.8c0-3.1-0.1-5.8-0.2-8.2h4.2l0.2,5.2h0.2c1.2-3.5,4.1-5.8,7.3-5.8c0.5,0,0.9,0.1,1.4,0.2v4.5 c-0.5-0.1-1-0.2-1.6-0.2c-3.4,0-5.8,2.6-6.5,6.2c-0.1,0.7-0.2,1.4-0.2,2.2V51h-4.8V32.8z"/><path fill="#FFFFFF" d="M95.4,51l-9.4-36.8h5l4.4,18.6c1.1,4.6,2.1,9.2,2.7,12.7h0.1c0.6-3.7,1.8-8,3-12.8l4.9-18.5h5l4.5,18.7 c1,4.4,2,8.7,2.6,12.6h0.1c0.8-4,1.8-8.1,3-12.7l4.9-18.5h4.9L120.6,51h-5L111,31.9c-1.1-4.7-1.9-8.3-2.4-12h-0.1 c-0.7,3.7-1.5,7.3-2.8,12L100.4,51H95.4z"/><path fill="#FFFFFF" d="M154.9,37.6c0,9.8-6.8,14-13.2,14c-7.2,0-12.7-5.2-12.7-13.6c0-8.8,5.8-14,13.1-14 C149.8,24,154.9,29.5,154.9,37.6z M133.9,37.9c0,5.8,3.3,10.1,8,10.1c4.6,0,8-4.3,8-10.3c0-4.5-2.2-10.1-7.9-10.1 C136.3,27.6,133.9,32.8,133.9,37.9z"/><path fill="#FFFFFF" d="M158.2,32.8c0-3.1-0.1-5.8-0.2-8.2h4.2l0.2,5.2h0.2c1.2-3.5,4.1-5.8,7.3-5.8c0.5,0,0.9,0.1,1.4,0.2v4.5 c-0.5-0.1-1-0.2-1.6-0.2c-3.4,0-5.8,2.6-6.5,6.2c-0.1,0.7-0.2,1.4-0.2,2.2V51h-4.8V32.8z"/><path fill="#FFFFFF" d="M173.5,12.3h4.8V51h-4.8V12.3z"/><path fill="#FFFFFF" d="M206.5,12.3v31.9c0,2.3,0.1,5,0.2,6.8h-4.3l-0.2-4.6H202c-1.5,2.9-4.7,5.2-9,5.2 c-6.4,0-11.3-5.4-11.3-13.4c-0.1-8.8,5.4-14.2,11.9-14.2c4,0,6.8,1.9,8,4h0.1V12.3H206.5z M201.7,35.4c0-0.6-0.1-1.4-0.2-2 c-0.7-3.1-3.3-5.6-6.9-5.6c-5,0-7.9,4.4-7.9,10.2c0,5.3,2.6,9.8,7.8,9.8c3.2,0,6.2-2.1,7.1-5.7c0.2-0.7,0.2-1.3,0.2-2.1V35.4z"/><path fill="#FFFFFF" d="M42.8,64c0.1,1.6-1.1,2.9-3.1,2.9c-1.7,0-2.9-1.3-2.9-2.9c0-1.7,1.3-3,3-3C41.7,61,42.8,62.3,42.8,64z M37.4,97.8V71.4h4.8v26.4H37.4z"/><path fill="#FFFFFF" d="M47.5,78.6c0-2.7-0.1-5-0.2-7.1h4.3l0.3,4.4h0.1c1.3-2.5,4.4-5,8.8-5c3.7,0,9.4,2.2,9.4,11.2v15.8h-4.8 V82.6c0-4.3-1.6-7.8-6.1-7.8c-3.2,0-5.6,2.2-6.5,4.9c-0.2,0.6-0.3,1.4-0.3,2.2v15.9h-4.8V78.6z"/><path fill="#FFFFFF" d="M84,61.6c2.9-0.4,6.3-0.8,10.1-0.8c6.8,0,11.7,1.6,14.9,4.6c3.3,3,5.2,7.3,5.2,13.2c0,6-1.9,10.9-5.3,14.3 c-3.4,3.4-9.1,5.3-16.3,5.3c-3.4,0-6.2-0.2-8.6-0.4V61.6z M88.8,94.1c1.2,0.2,3,0.3,4.8,0.3c10.2,0,15.7-5.7,15.7-15.6 c0.1-8.7-4.9-14.2-14.9-14.2c-2.5,0-4.3,0.2-5.6,0.5V94.1z"/><path fill="#FFFFFF" d="M132.1,97.8l-0.4-3.3h-0.2c-1.5,2.1-4.3,3.9-8.1,3.9c-5.4,0-8.1-3.8-8.1-7.6c0-6.4,5.7-9.9,15.9-9.8v-0.5 c0-2.2-0.6-6.1-6-6.1c-2.5,0-5,0.8-6.9,2l-1.1-3.2c2.2-1.4,5.4-2.3,8.7-2.3c8.1,0,10.1,5.5,10.1,10.8v9.9c0,2.3,0.1,4.5,0.4,6.3 H132.1z M131.4,84.4c-5.3-0.1-11.2,0.8-11.2,5.9c0,3.1,2.1,4.6,4.5,4.6c3.4,0,5.6-2.2,6.4-4.4c0.2-0.5,0.3-1,0.3-1.5V84.4z"/><path fill="#FFFFFF" d="M146.6,63.9v7.6h6.9v3.7h-6.9v14.2c0,3.3,0.9,5.1,3.6,5.1c1.3,0,2.2-0.2,2.8-0.3l0.2,3.6 c-0.9,0.4-2.4,0.7-4.3,0.7c-2.2,0-4-0.7-5.2-2c-1.4-1.4-1.9-3.8-1.9-6.9V75.1h-4.1v-3.7h4.1v-6.3L146.6,63.9z"/><path fill="#FFFFFF" d="M171.4,97.8l-0.4-3.3h-0.2c-1.5,2.1-4.3,3.9-8.1,3.9c-5.4,0-8.1-3.8-8.1-7.6c0-6.4,5.7-9.9,15.9-9.8v-0.5 c0-2.2-0.6-6.1-6-6.1c-2.5,0-5,0.8-6.9,2l-1.1-3.2c2.2-1.4,5.4-2.3,8.7-2.3c8.1,0,10.1,5.5,10.1,10.8v9.9c0,2.3,0.1,4.5,0.4,6.3 H171.4z M170.7,84.4c-5.3-0.1-11.2,0.8-11.2,5.9c0,3.1,2.1,4.6,4.5,4.6c3.4,0,5.6-2.2,6.4-4.4c0.2-0.5,0.3-1,0.3-1.5V84.4z"/></g></g></a></g><a href="https://ourworldindata.org/grapher/precipitation-anomaly" target="_blank"><text font-size="25.20" x="15.0" y="35.2" fill="#555"><tspan x="15" y="35.160000000000004">Precipitation anomaly</tspan></text></a><text font-size="14.40" x="15.0" y="53.7" fill="#666"><tspan x="15" y="53.72">Annual anomalies, or differences, compared with the average precipitation from 1901 to 2000 based on rainfall and</tspan><tspan x="15" y="69.56">snowfall measurements from land-based weather stations. At each weather station, annual precipitation anomalies</tspan><tspan x="15" y="85.4">were calculated from total annual precipitation in inches. Anomalies across all US states were then aggregated based</tspan><tspan x="15" y="101.24000000000001">on weighted averages (by area) to define a national result.</tspan></text></g><g class="LineChart"><defs><clipPath id="boundsClip-1"><rect x="75.934" y="0" width="830" height="866.8"></rect></clipPath></defs><g class="AxisBoxView"><g class="HorizontalAxis"><text x="85.9" y="556.5" fill="#666" text-anchor="middle" font-size="16.2">1901</text><text x="191.4" y="556.5" fill="#666" text-anchor="middle" font-size="16.2">1920</text><text x="302.4" y="556.5" fill="#666" text-anchor="middle" font-size="16.2">1940</text><text x="413.4" y="556.5" fill="#666" text-anchor="middle" font-size="16.2">1960</text><text x="524.4" y="556.5" fill="#666" text-anchor="middle" font-size="16.2">1980</text><text x="635.4" y="556.5" fill="#666" text-anchor="middle" font-size="16.2">2000</text><text x="718.6" y="556.5" fill="#666" text-anchor="middle" font-size="16.2">2015</text></g><g class="VerticalAxis"><text x="80.93" y="493.1" fill="#666" dominant-baseline="middle" text-anchor="end" font-size="16.2">-4 inches</text><text x="80.93" y="411" fill="#666" dominant-baseline="middle" text-anchor="end" font-size="16.2">-2 inches</text><text x="80.93" y="329" fill="#666" dominant-baseline="middle" text-anchor="end" font-size="16.2">0 inches</text><text x="80.93" y="247" fill="#666" dominant-baseline="middle" text-anchor="end" font-size="16.2">2 inches</text><text x="80.93" y="164.9" fill="#666" dominant-baseline="middle" text-anchor="end" font-size="16.2">4 inches</text></g><g class="AxisGridLines"><line x1="85.93" y1="493.1" x2="718.60" y2="493.1" stroke="#ddd" stroke-dasharray="3,2"></line><line x1="85.93" y1="411" x2="718.60" y2="411" stroke="#ddd" stroke-dasharray="3,2"></line><line x1="85.93" y1="329" x2="718.60" y2="329" stroke="#ccc"></line><line x1="85.93" y1="247" x2="718.60" y2="247" stroke="#ddd" stroke-dasharray="3,2"></line><line x1="85.93" y1="164.9" x2="718.60" y2="164.9" stroke="#ddd" stroke-dasharray="3,2"></line></g></g><g clip-path="url(#boundsClip-1)"><g class="HeightedLegend clickable"><g class="legendMark"><rect x="718.595" y="132.35" width="116.405" height="13.5" fill="#fff" opacity="0"></rect><text font-size="13.50" x="723.6" y="143.2" fill="#3360a9"><tspan x="723.595" y="143.15">United States</tspan></text></g></g><g class="Lines"><rect x="86" y="123" width="633" height="412" fill="rgba(255,255,255,0)" opacity="0"></rect><g class="key-United-States_0"><path stroke="#3360a9" stroke-linecap="round" d="M86 424L92 301L97 353L103 411L108 220L114 210L119 288L125 335L130 278L136 535L141 346L147 307L153 333L158 375L164 213L169 350L175 517L180 377L186 254L191 273L197 377L203 331L208 258L214 469L219 451L225 288L230 242L236 347L241 320L247 508L252 428L258 309L264 429L269 499L275 348L280 438L286 306L291 337L297 477L302 310L308 211L314 272L319 457L325 301L330 202L336 282L341 353L347 298L352 314L358 291L363 275L369 477L375 396L380 484L386 419L391 516L397 168L402 317L408 302L413 378L419 275L425 384L430 503L436 316L441 335L447 431L452 343L458 311L463 301L469 339L474 313L480 257L486 123L491 301L497 202L502 478L508 309L513 321L519 214L524 398L530 328L536 168L541 131L547 269L552 328L558 270L563 367L569 495L574 366L580 238L585 227L591 275L597 219L602 301L608 216L613 175L619 250L624 167L630 389L635 400L641 367L646 366L652 306L658 193L663 323L669 334L674 360L680 276L685 232L691 270L696 322L702 428L708 283L713 292L719 139" fill="none" stroke-width="1.5"></path><g fill="#3360a9"><circle cx="86" cy="424" r="2"></circle><circle cx="92" cy="301" r="2"></circle><circle cx="97" cy="353" r="2"></circle><circle cx="103" cy="411" r="2"></circle><circle cx="108" cy="220" r="2"></circle><circle cx="114" cy="210" r="2"></circle><circle cx="119" cy="288" r="2"></circle><circle cx="125" cy="335" r="2"></circle><circle cx="130" cy="278" r="2"></circle><circle cx="136" cy="535" r="2"></circle><circle cx="141" cy="346" r="2"></circle><circle cx="147" cy="307" r="2"></circle><circle cx="153" cy="333" r="2"></circle><circle cx="158" cy="375" r="2"></circle><circle cx="164" cy="213" r="2"></circle><circle cx="169" cy="350" r="2"></circle><circle cx="175" cy="517" r="2"></circle><circle cx="180" cy="377" r="2"></circle><circle cx="186" cy="254" r="2"></circle><circle cx="191" cy="273" r="2"></circle><circle cx="197" cy="377" r="2"></circle><circle cx="203" cy="331" r="2"></circle><circle cx="208" cy="258" r="2"></circle><circle cx="214" cy="469" r="2"></circle><circle cx="219" cy="451" r="2"></circle><circle cx="225" cy="288" r="2"></circle><circle cx="230" cy="242" r="2"></circle><circle cx="236" cy="347" r="2"></circle><circle cx="241" cy="320" r="2"></circle><circle cx="247" cy="508" r="2"></circle><circle cx="252" cy="428" r="2"></circle><circle cx="258" cy="309" r="2"></circle><circle cx="264" cy="429" r="2"></circle><circle cx="269" cy="499" r="2"></circle><circle cx="275" cy="348" r="2"></circle><circle cx="280" cy="438" r="2"></circle><circle cx="286" cy="306" r="2"></circle><circle cx="291" cy="337" r="2"></circle><circle cx="297" cy="477" r="2"></circle><circle cx="302" cy="310" r="2"></circle><circle cx="308" cy="211" r="2"></circle><circle cx="314" cy="272" r="2"></circle><circle cx="319" cy="457" r="2"></circle><circle cx="325" cy="301" r="2"></circle><circle cx="330" cy="202" r="2"></circle><circle cx="336" cy="282" r="2"></circle><circle cx="341" cy="353" r="2"></circle><circle cx="347" cy="298" r="2"></circle><circle cx="352" cy="314" r="2"></circle><circle cx="358" cy="291" r="2"></circle><circle cx="363" cy="275" r="2"></circle><circle cx="369" cy="477" r="2"></circle><circle cx="375" cy="396" r="2"></circle><circle cx="380" cy="484" r="2"></circle><circle cx="386" cy="419" r="2"></circle><circle cx="391" cy="516" r="2"></circle><circle cx="397" cy="168" r="2"></circle><circle cx="402" cy="317" r="2"></circle><circle cx="408" cy="302" r="2"></circle><circle cx="413" cy="378" r="2"></circle><circle cx="419" cy="275" r="2"></circle><circle cx="425" cy="384" r="2"></circle><circle cx="430" cy="503" r="2"></circle><circle cx="436" cy="316" r="2"></circle><circle cx="441" cy="335" r="2"></circle><circle cx="447" cy="431" r="2"></circle><circle cx="452" cy="343" r="2"></circle><circle cx="458" cy="311" r="2"></circle><circle cx="463" cy="301" r="2"></circle><circle cx="469" cy="339" r="2"></circle><circle cx="474" cy="313" r="2"></circle><circle cx="480" cy="257" r="2"></circle><circle cx="486" cy="123" r="2"></circle><circle cx="491" cy="301" r="2"></circle><circle cx="497" cy="202" r="2"></circle><circle cx="502" cy="478" r="2"></circle><circle cx="508" cy="309" r="2"></circle><circle cx="513" cy="321" r="2"></circle><circle cx="519" cy="214" r="2"></circle><circle cx="524" cy="398" r="2"></circle><circle cx="530" cy="328" r="2"></circle><circle cx="536" cy="168" r="2"></circle><circle cx="541" cy="131" r="2"></circle><circle cx="547" cy="269" r="2"></circle><circle cx="552" cy="328" r="2"></circle><circle cx="558" cy="270" r="2"></circle><circle cx="563" cy="367" r="2"></circle><circle cx="569" cy="495" r="2"></circle><circle cx="574" cy="366" r="2"></circle><circle cx="580" cy="238" r="2"></circle><circle cx="585" cy="227" r="2"></circle><circle cx="591" cy="275" r="2"></circle><circle cx="597" cy="219" r="2"></circle><circle cx="602" cy="301" r="2"></circle><circle cx="608" cy="216" r="2"></circle><circle cx="613" cy="175" r="2"></circle><circle cx="619" cy="250" r="2"></circle><circle cx="624" cy="167" r="2"></circle><circle cx="630" cy="389" r="2"></circle><circle cx="635" cy="400" r="2"></circle><circle cx="641" cy="367" r="2"></circle><circle cx="646" cy="366" r="2"></circle><circle cx="652" cy="306" r="2"></circle><circle cx="658" cy="193" r="2"></circle><circle cx="663" cy="323" r="2"></circle><circle cx="669" cy="334" r="2"></circle><circle cx="674" cy="360" r="2"></circle><circle cx="680" cy="276" r="2"></circle><circle cx="685" cy="232" r="2"></circle><circle cx="691" cy="270" r="2"></circle><circle cx="696" cy="322" r="2"></circle><circle cx="702" cy="428" r="2"></circle><circle cx="708" cy="283" r="2"></circle><circle cx="713" cy="292" r="2"></circle><circle cx="719" cy="139" r="2"></circle></g></g></g></g></g><g style="fill: #777;" class="SourcesFooter"><g style="fill: #777;" class="clickable"><text font-size="12.60" x="15.0" y="581.6"><tspan x="15" y="581.58">Source: National Oceanic &amp; Atmospheric Administration (NOAA) via the US EPA</tspan></text></g><text font-size="12.60" x="775.4" y="581.6"><tspan x="775.402" y="581.58"><a style="fill: #777;" class="cclogo" href="http://creativecommons.org/licenses/by-sa/4.0/deed.en_US" target="_blank">CC BY-SA</a></tspan></text></g></g></svg>
